public/imgs/story/story-partener-6.svg

<svg fill="none" height="89" viewBox="0 0 89 89" width="89" xmlns="http://www.w3.org/2000/svg" xmlns:xlink="http://www.w3.org/1999/xlink"><clipPath id="a"><path d="m24.5547 22h39v45h-39z"/></clipPath><circle cx="44.2225" cy="44.2225" fill="#375bd2" r="44.2225"/><g clip-path="url(#a)"><path d="m44.0587 31.5221 11.2608 6.4592v12.9818l-11.2291 6.4989-11.2529-6.4433v-12.9739zm0-9.5221-4.1295 2.3805-11.245 6.5227-4.1295 2.3805v22.5119l4.1295 2.3806 11.2608 6.4591 4.1295 2.3806 4.1295-2.3806 11.2212-6.5068 4.1295-2.3805v-22.5436l-4.1295-2.3806-11.2529-6.4433-4.1295-2.3805z" fill="#fff"/></g></svg>

<svg width="89" height="89" viewBox="0 0 89 89" fill="none" xmlns="http://www.w3.org/2000/svg">
<circle cx="44.2225" cy="44.2225" r="44.2225" fill="#375BD2"/>
<g clip-path="url(#clip0_5686_17621)">
<path d="M44.0587 31.5221L55.3195 37.9813V50.9631L44.0904 57.462L32.8375 51.0187V38.0448L44.0587 31.5221ZM44.0587 22L39.9292 24.3805L28.6842 30.9032L24.5547 33.2837V55.7956L28.6842 58.1762L39.945 64.6353L44.0745 67.0159L48.204 64.6353L59.4252 58.1285L63.5547 55.748V33.2044L59.4252 30.8238L48.1723 24.3805L44.0428 22H44.0587Z" fill="white"/>
</g>
<defs>
<clipPath id="clip0_5686_17621">
<rect width="39" height="45" fill="white" transform="translate(24.5547 22)"/>
</clipPath>
</defs>
</svg>
